icon-themes/breeze_svg/cmd/32/convertinto3d.svg

<svg viewBox="0 0 32 32" xmlns="http://www.w3.org/2000/svg"><path d="m4 8.5v19.5h19.5v-19.5z" fill="#b3b3b3"/><path d="m8.5 4-4.5 4.5h19.5v19.5l4.5-4.5v-19.5z" fill="#4d4d4d"/><path d="m10 16a6 6 0 0 0 -6 6 6 6 0 0 0 .8359375 3.042969l.7324219-.732422a5 5 0 0 1 -.5683594-2.310547 5 5 0 0 1 5-5 5 5 0 0 1 2.308594.570312l.734375-.734374a6 6 0 0 0 -3.042969-.835938zm5.164062 2.957031-.732421.732422a5 5 0 0 1 .568359 2.310547 5 5 0 0 1 -5 5 5 5 0 0 1 -2.3085938-.570312l-.734375.734374a6 6 0 0 0 3.0429688.835938 6 6 0 0 0 6-6 6 6 0 0 0 -.835938-3.042969z" fill="#1d99f3"/></svg>

<svg xmlns="http://www.w3.org/2000/svg" viewBox="0 0 32 32">
    <path
       style="fill:#b3b3b3"
       d="M 4 8.5 L 4 28 L 23.5 28 L 23.5 8.5 L 4 8.5 z " />
    <path
       style="fill:#4d4d4d"
       d="M 8.5 4 L 4 8.5 L 23.5 8.5 L 23.5 28 L 28 23.5 L 28 4 L 8.5 4 z "
	   />
    <path
       style="fill:#1d99f3"
       d="M 10 16 A 6 6 0 0 0 4 22 A 6 6 0 0 0 4.8359375 25.042969 L 5.5683594 24.310547 A 5 5 0 0 1 5 22 A 5 5 0 0 1 10 17 A 5 5 0 0 1 12.308594 17.570312 L 13.042969 16.835938 A 6 6 0 0 0 10 16 z M 15.164062 18.957031 L 14.431641 19.689453 A 5 5 0 0 1 15 22 A 5 5 0 0 1 10 27 A 5 5 0 0 1 7.6914062 26.429688 L 6.9570312 27.164062 A 6 6 0 0 0 10 28 A 6 6 0 0 0 16 22 A 6 6 0 0 0 15.164062 18.957031 z "
	   />
</svg>
